!!! OTL: Literature109
!!! Chapter: 5
!!! Section: III
!!! Page: 370
!!! Mode: 
!!! Encoder: DJB
**kern
*staff1
*I"Piano
=1-
*clefC3
*k[]
*a:
*M4/4
8e\L
8a\
8cc\
8g#\J
8a\L
8e\
8f\
8e\J
=2
8e\L
8b\
8dd\
8g#\J
8cc\L
8e\
8f\
8e\J
=3
8r
8e\L
8f\
8e\J
8r
8e\L
8f\
8e\J
=4
8r
8e\L
8f\
8e\J
8f\L
8e\
8f\
8e\J
=5
8e\L
8a\
8cc\
8g#\J
8a\L
8e\
8f\
8e\J
=6
!!linebreak:original
8e\L
8b\
8dd\
8g#\J
8b\L
8e\
8f\
8e\J
=7
8r
8e\L
8f\
8e\J
8r
8e\L
8f\
8e\J
=8
8r
8e\L
8f\
8e\J
8f\L
8e\
8f\
8e\J
=9:|!
8e\L
8g#\
8b\
8dd#\J
8ee\L
8b\
8cc\
8a\J
=10
!!linebreak:original
8g#\L
8b\
8a#\
8an\J
8g#\L
8gn\
8f#\
8fn\J
=11
8e\L
8g#\
8b\
8dd#\J
8ee\L
8b\
8cc\
8a\J
=12
8g#\L
8b\
8a#\
8an\J
8g#\L
8gn\
8f#\
8fn\J
=13
8e\L
8a\
8cc\
8g#\J
8a\L
8e\
8f\
8e\J
=14
!!linebreak:original
8e\L
8b\
8dd\
8g#\J
8b\L
8e\
8f\
8e\J
=15
8r
8e\L
8f\
8e\J
8r
8e\L
8f\
8e\J
=16
8r
8e\L
8f\
8e\J
8f\L
8e\
8f\
8e\J
==
*-
